!!!!SEGMENT: pl-kk--kk-i-14--006_anonim--alleluia-ave-maria.krn
!!!cenid: 17xx:2194
!!!COM: Anonim
!!!COM-rismID: pe30004985
!!!CDT:
!!!CNT:
!!!OTL: Alleluia Ave Maria
!!!PDT:
!!!AGN: Sacred
!!!SMS-siglum: PL-Kk
!!!SMS-shelfmark: Kk.I.14
!!!SMS-shelfwork: 006 W
!!!SMS-variant:
!!!SMS-altvar:
!!!NIFC-rismSourceID: 1001154375
!!!NIFC-rismChildID: 1001154384
!!!NIFC-islandoraID: pl-kk:2607
!!!URL-pdf-islandora: https://repozytorium.nifc.pl/islandora/object/pl-kk%3A2607/datastream/PDF/view
!!!URL-scan: https://polish.musicsources.pl/pl/lokalizacje/galeria/rekopisy/5768 @EN{Scan on Polish Music Sources Website} @PL{Skany w portalu Dziedzictwo Muzyki Polskiej w otwartym dostępie}
!!!IIIF:
!!!ONB-nifc: UWAGA: T (skan 0005), B (0018). Następny utwór: Laetentur caeli
!!!AIN: 1 empty 1 soprn
!!!key:
**kern	**text	**kern	**text
*part2	*part2	*part1	*part1
*staff2	*staff2	*staff1	*staff1
*Iempty	*	*Isoprn	*
*I"Baſſo.	*	*I"[Soprano]	*
*I'B	*	*I'S	*
*clefF4	*	*clefC1	*
*k[]	*	*k[]	*
*C:	*	*C:	*
*M2/1	*	*M2/1	*
*met(C|)	*	*met(C)	*
*all\right	*	*all\right	*
=1-	=1-	=1-	=1-
00r	.	1rg	.
.	.	1cc	Al-
=2-	=2-	=2-	=2-
.	.	1a	-le-
.	.	1b	.
=3-	=3-	=3-	=3-
!LO:TX:t=P:problem=kreska pseudotaktowa	!	!	!
1rE	.	1cc	.
*	*	*2\right	*
1G	Al-	2.b\	.
.	.	4a\	.
=4-	=4-	=4-	=4-
*2\right	*	*	*
2E\	-le-	2g/	.
2F\	.	2a\	.
2G\	.	2b\	.
!LO:TX:t=P:problem=kreska pseudotaktowa	!	!	!
2BBn/	.	2dd\	.
=5-	=5-	=5-	=5-
2C/	.	1cc	.
2AA/	.	.	.
1D	-lu-	1a	-lu-
=6-	=6-	=6-	=6-
!LO:TX:t=P:problem=kreska pseudotaktowa	!	!	!
0GGl;	-ia	0bl;;	-ia
!LO:LB:g=original	!	!LO:LB:g=original	!
=7||	=7||	=7||	=7||
*M2/1	*	*M2/1	*
*met(C|)	*	*met(C)	*
00r	.	1rg	.
.	.	1cc	A-
=8-	=8-	=8-	=8-
.	.	1a	-ve
.	.	4b\	Ma-
.	.	4g\	.
.	.	1cc\	.
=9-	=9-	=9-	=9-
!LO:TX:t=P:problem=kreska pseudotaktowa	!	!	!
00r	.	.	.
.	.	2b\	.
.	.	1cc	.
=10-	=10-	=10-	=10-
.	.	4b\	.
.	.	4a\	.
.	.	2g/	.
.	.	1a	-ri-
=11-	=11-	=11-	=11-
1G	A-	1g	-a
2E\	-ve	1rg	.
2F#X\	Ma-	.	.
=12-	=12-	=12-	=12-
4G\	.	1dd	A-
4D\	.	.	.
1G	-ri-	.	.
.	.	2cc\	-ve
2F#X\	-a	2a\	Ma-
=13-	=13-	=13-	=13-
!LO:TX:t=P:problem=kreska pseudotaktowa	!	!	!
1G	.	1b	-ri-
2r	.	2cc\	-a
2C/	A-	1cc\	A-
=14-	=14-	=14-	=14-
2AA/	-ve	.	.
!LO:TX:t=P:problem=kreska pseudotaktowa	!	!	!
2BB/	Ma-	4b\	.
.	.	4a\	.
4C/	.	1g	.
4FF/	.	.	.
1C/	.	.	.
=15-	=15-	=15-	=15-
.	.	2a\	.
!LO:TX:t=P:problem=kreska pseudotaktowa	!	!	!
2BB/	.	2g\	.
!	!	!LO:LB:g=original	!
2C/	.	2g\	-ve
2AA/	.	2r	.
=16-	=16-	=16-	=16-
!LO:TX:t=P:problem=kreska pseudotaktowa	!	!	!
1D	-ri-	2dd\	gra-
.	.	2cc\	.
!LO:LB:g=original	!	!	!
2GG/	-a	1b	.
!LO:TX:t=P:problem=kreska pseudotaktowa	!	!	!
2G\	gra-	.	.
=17-	=17-	=17-	=17-
1Fn	.	1a	.
1E	.	2b\	-ti-
.	.	4b\	-a
.	.	4cc,<\	.
=18-	=18-	=18-	=18-
!LO:TX:t=P:problem=kreska pseudotaktowa	!	!	!
1D	.	4dd\	ple-
.	.	4a\	.
.	.	2dd\	.
2E\	-ti-	2.cc\	.
4E\	-a	.	.
!LO:TX:t=P:problem=kreska pseudotaktowa	!	!	!
4F#X\	.	4a\	.
=19-	=19-	=19-	=19-
4G\	ple-	2b\	-na
4D\	.	.	.
1G	.	2dd\	gra-
.	.	2cc\	-ti-
!LO:TX:t=P:problem=kreska pseudotaktowa	!	!	!
2F#X\	.	2a\	-a
=20-	=20-	=20-	=20-
2G,<\	-na	2b\	ple-
!LO:TX:t=P:problem=kreska pseudotaktowa	!	!	!
2C/	A-	2cc\	.
4D\	.	2a\	.
4C\	.	.	.
4D\	.	2.dd\	.
!LO:TX:t=P:problem=kreska pseudotaktowa	!	!	!
4E\	.	.	.
=21-	=21-	=21-	=21-
1D	-ve	.	.
.	.	4b\	.
.	.	2dd\	.
!LO:TX:t=P:problem=kreska pseudotaktowa	!	!	!
1G	.	1b	-na
!	!	!LO:PB:g=original	!
=22-	=22-	=22-	=22-
1r	.	2g/	Do-
.	.	2.dd\	-mi-
1D	Do-	.	.
.	.	4dd\	-nus
.	.	2dd\	.
=23-	=23-	=23-	=23-
2.A\	-mi-	4a\	te-
.	.	4b\	.
.	.	4cc\	.
4A\	-nus	4dd\	.
!LO:TX:t=P:problem=kreska pseudotaktowa	!	!	!
1A	.	1ee	.
!LO:LB:g=original	!	!	!
=24-	=24-	=24-	=24-
4D\	te-	1ff#X	.
4E\	.	.	.
4Fny\	.	.	.
!LO:TX:t=P:problem=kreska pseudotaktowa	!	!	!
4G\	.	.	.
1A	.	1ee	.
=25-	=25-	=25-	=25-
!LO:TX:t=P:problem=kreska pseudotaktowa	!	!	!
1B	.	1dd	.
2A\	.	2cc\	.
2D,</	-cum	2dd\	.
=26-	=26-	=26-	=26-
2G\	te-	1b	.
2E\	.	.	.
1A	.	0a	-cum
=27-	=27-	=27-	=27-
!LO:TX:t=P:problem=kreska pseudotaktowa	!	!	!
1D	-cum	.	.
00r	.	2r	.
.	.	2a\	Do-
=28-	=28-	=28-	=28-
.	.	2.dd\	-mi-
.	.	4dd\	-nus
.	.	2dd\	.
.	.	2.a\	te-
=29-	=29-	=29-	=29-
.	.	4b\	.
.	.	4cc\	.
.	.	4a\	.
!	!	!LO:LB:g=original	!
4GG/	te-	1dd	.
4AA/	.	.	.
4BB/	.	.	.
4C/	.	.	.
=30-	=30-	=30-	=30-
!LO:TX:t=P:problem=kreska pseudotaktowa	!	!	!
1D	.	1dd	cum
2E/	.	1r	.
2C/	.	.	.
=31-	=31-	=31-	=31-
1D	.	2dd\	be-
.	.	2dd\	-ne-
!LO:TX:t=P:problem=kreska pseudotaktowa	!	!	!
1GG	-cum	2b\	-di-
.	.	2g/	-cta
=32-	=32-	=32-	=32-
2.G\	be-	2dd\	tu
.	.	2dd\	in
4G\	-ne-	.	.
!LO:LB:g=original	!	!	!
2E\	-di-	2ee\	Mu-
2C/	-cta	2ee\	-li-
=33-	=33-	=33-	=33-
!LO:TX:t=P:problem=kreska pseudotaktowa	!	!	!
1G	tu	2dd\	-e-
.	.	2dd\	-ri-
1r	.	1cc	-bus
=34-	=34-	=34-	=34-
2.C/	be-	0r	.
4C/	-ne-	.	.
2AA/	-di-	.	.
2FF/	-cta	.	.
=35-	=35-	=35-	=35-
2C/	tu	2cc\	be-
!LO:TX:t=P:problem=kreska pseudotaktowa	!	!	!
2C/	in	2cc\	-ne-
2D/	Mu-	2a\	-di-
2D/	-li-	2f/	-cta
=36-	=36-	=36-	=36-
4C/	-e-	2cc\	tu
4GG/	.	.	.
1C	-ri-	2cc\	in
.	.	2dd\	Mu-
!LO:TX:t=P:problem=kreska pseudotaktowa	!	!	!
2BB/	.	2dd\	-li-
!	!	!LO:LB:g=original	!
=37-	=37-	=37-	=37-
2C,</	-bus	1cc	-e-
2E\	in	.	.
2F\	Mu-	1a	-ri-
!LO:TX:t=P:problem=kreska pseudotaktowa	!	!	!
2D\	-li-	.	.
=38-	=38-	=38-	=38-
2G\	-e-	1b	-bus
2E\	.	.	.
!LO:LB:g=original	!	!	!
2A\	.	1r	.
!LO:TX:t=P:problem=kreska pseudotaktowa	!	!	!
2F\	.	.	.
=39-	=39-	=39-	=39-
*	*	*	*ij
2D/	.	2dd\	be-
2D/	-ri-	2dd\	-ne-
!LO:TX:t=P:problem=kreska pseudotaktowa	!	!	!
1GG	-bus	2b\	-di-
.	.	2g/	-cta
=40-	=40-	=40-	=40-
2G\	be-	2dd\	tu
2G\	-ne-	2dd\	in
2E\	-di-	2ee\	Mu-
!LO:TX:t=P:problem=kreska pseudotaktowa	!	!	!
2C/	-cta	2ee\	-li-
=41-	=41-	=41-	=41-
2G,<\	tu	2dd\	-e-
2E\	in	4cc\	-ri-
.	.	4b\	.
2F\	Mu-	2a\	-bus
*	*	*	*Xij
2F\	-li-	2a\	in
=42-	=42-	=42-	=42-
2C/	-e-	2g/	Mu-
2C/	-ri-	2cc\	-li-
!LO:TX:t=P:problem=kreska pseudotaktowa	!	!	!
1GG	-bus	2.dd\	-e-
.	.	4dd\	-ri-
=43-	=43-	=43-	=43-
!LO:TX:t=P:problem=kreska pseudotaktowa	!	!	!
0rD	.	1cc	-bus
.	.	2cc\	be-
.	.	2cc\	-ne-
!	!	!LO:LB:g=original	!
=44-	=44-	=44-	=44-
2G\	be-	2b\	-di-
2G\	-ne-	2g/	-cta
2E\	-di-	1cc	tu
2C/	-cta	.	.
!LO:LB:g=original	!	!	!
=45-	=45-	=45-	=45-
2G\	tu	0r	.
!LO:TX:t=P:problem=kreska pseudotaktowa	!	!	!
2G\	in	.	.
2A\	Mu-	.	.
!LO:TX:t=P:problem=kreska pseudotaktowa	!	!	!
2A\	-li-	.	.
=46-	=46-	=46-	=46-
2F\	-e-	2dd\	be-
2D/	.	2dd\	-ne-
4G\	.	2b\	-di-
4F\	.	.	.
4E\	.	2g/	-cta
!LO:TX:t=P:problem=kreska pseudotaktowa	!	!	!
4D\	.	.	.
=47-	=47-	=47-	=47-
*	*	*	*ij
1C	.	2cc\	be-
.	.	2cc\	-ne-
2D/	.	2a\	-di-
2D/	-ri-	2f#X/	-cta
*	*	*	*Xij
=48-	=48-	=48-	=48-
2GG,</	-bus	2g/	tu
!LO:TX:t=P:problem=kreska pseudotaktowa	!	!	!
2BB/	in	2g/	in
2C/	Mu-	2cc\	Mu-
2BB/	-li-	2dd\	-li-
=49-	=49-	=49-	=49-
2C/	-e-	2cc\	-e-
2C/	-ri-	2cc\	-ri-
2GG/	-bus	2b\	-bus
!LO:TX:t=P:problem=kreska pseudotaktowa	!	!	!
2rGG	.	2b\	in
=50-	=50-	=50-	=50-
!LO:TX:a:t=2	!	!	!
0r	.	2cc\	Mu-
.	.	2b\	-li-
.	.	2cc\	-e-
.	.	2cc\	-ri-
!LO:LB:g=original	!	!	!
=51-	=51-	=51-	=51-
2G\	be-	1b	-bus
!LO:TX:t=P:problem=kreska pseudotaktowa	!	!	!
2G\	-ne-	.	.
!	!	!LO:LB:g=original	!
!	!	!LO:TX:a:t=2	!
2E\	-di-	0r	.
!LO:TX:t=P:problem=kreska pseudotaktowa	!	!	!
2C/	-cta	.	.
=52-	=52-	=52-	=52-
2G\	tu	.	.
2GG/	in	.	.
2C/	Mu-	2gg\	be-
!LO:TX:t=P:problem=kreska pseudotaktowa	!	!	!
2BB/	-li-	2gg\	-ne-
=53-	=53-	=53-	=53-
2C/	-e-	2ee\	-di-
2GG/	-ri-	2dd\	-cta
2C/	-bus	2ee\	tu
!LO:TX:t=P:problem=kreska pseudotaktowa	!	!	!
2BB/	in	2b\	in
=54-	=54-	=54-	=54-
2C/	Mu-	2ee\	Mu-
2GG/	-li-	2b\	-li-
1.C	-e-	1.cc	-e-
=55-	=55-	=55-	=55-
2C/	-ri-	2cc\	-ri-
1GGl;;	-bus-	1bl;;	-bus-
==	==	==	==
*-	*-	*-	*-
!!!system-decoration: [(s1,s2)]
!!!RDF**kern: > = above
!!!RDF**kern: < = below
!!!RDF**kern: l = terminal long
!!!ENC: Andrzej Kubiczek
!!!END: 2021-07-16
!!!ENC: Anastazja Marusiak
!!!END: 2021-06-30
!!!YEC: Copyright 2022 Narodowy Instytut Fryderyka Chopina (https://polishscores.org)
!!!YEM: License CC-BY-4.0 (https://creativecommons.org/licenses/by/4.0)
